X:1169
T:"Moll Roe"         (slipjig)    1169
C:after Chief  F. O'Neill.
N:added anacrucis to allow for proper repeat scancion
B:O'Neill's Music Of Ireland (The 1850) Lyon & Healy, Chicago, 1903 edition
Z:FROM O'NEILL'S TO NOTEWORTHY, FROM NOTEWORTHY TO ABC, MIDI AND .TXT BY VINCE
BRENNAN July 2003 (HTTP://WWW.SOSYOURMOM.COM)
I:abc2nwc
M:9/8
L:1/8
K:G
G|DGG GAG FGA|BGB cAB c2c|DGG GAG FGA|BGB cAF G2(G/2F/2)|
DGG GAG FGA|BGB cAB c2(B/2c/2)|ded cAG FGA|BGB cAF G2||
(B/2c/2)|ded cAG FGA|ded cAB c2(B/2c/2)|ded cAG FGA|BGB cAF G2(B/2c/2)|
ded cAG FGA|ded cAB c2(d/2e/2)|fed cAG FGA|BGB cAF G2|]
